X: 14075
T: Free Now
R: reel
M: 4/4
K: Amajor
AE~E2 CEAc|BF~F2 DFBc|AE~E2 FABc|dcBA BABc|
AE~E2 CEAc|BF~F2 DFBc|dcBA ecBA1|1 fefa gedB:|2 fefa gefg||
|:af~f2 faba|ge~e2 egag|fc~c2 cBAc|BAGA Fefg|
af~f2 faba|ge~e2 ebc'b|aed'c' bc'ba|1 fefa gefg:|2 fefa gedB||

